X:1
T:[ID 7-189]
T:[ID 7-189]
T:Bezeichnung standardisiert: Menuet [mit Trio] Menuet Con Trio
T:Urheber unbekannt Datum in der hier transkribierten schriftlichen Quelle: 1776 - 1791
C:Urheber unbekannt
C:Datum in der hier transkribierten schriftlichen Quelle: 1776 - 1791
L:1/8
M:3/4
K:F
V:1 treble 
V:1
 F4 Ac | f2 f2 f2 | c4 gb | afeg f2 | ag{g} f4 | gf{f} e4 | fagfed | c6 :: c4 ac | cB Ac B2 | %10
 B4 gB | BAGB A2 | F4 Ac | fagefc | (3dcB A2 G2 |{G} F6 :|[M:3/4]"^Trio" !fermata!c4 (3Bcd | %17
 c2 d2 e2 | f4 ed | c2 B2 A2 | ^GcBcdc | A2 G2 F2 | EG c2 =B2 | c6 :: c2 ecAc | B2 c2 d2 | %26
 B2 dBGB | A2 B2 c2 | [DA]fedcB | AcBdce | (3dcB A2 G2 |{G} F6 :| %32

